layouts/icon-pack/spell_reflect.svg

<?xml version="1.0" encoding="UTF-8"?>
<svg width="1200pt" height="1200pt" version="1.1" viewBox="0 0 1200 1200" xmlns="http://www.w3.org/2000/svg">
 <g fill="#fff">
  <path d="m81.562 1118.8c82.488-60.16 149.58-138.96 195.81-229.99 46.23-91.027 70.285-191.7 70.203-293.79 0.082031-102.09-23.973-202.75-70.203-293.78-46.23-91.023-113.33-169.82-195.81-229.98-4.6289-3.3516-10.332-4.8711-16.016-4.2695-5.6836 0.60547-10.941 3.2891-14.762 7.5391-3.8164 4.2539-5.9297 9.7656-5.9258 15.48v1010c-0.007813 5.7188 2.0977 11.234 5.918 15.492 3.8164 4.2539 9.0781 6.9414 14.762 7.5508 5.6836 0.60547 11.395-0.91406 16.023-4.2695z"/>
  <path d="m1106.4 660.94h-602.09c-12.797 0-25.082 5.0391-34.195 14.023-9.1133 8.9844-14.32 21.199-14.5 33.996-0.17969 12.793 4.6836 25.148 13.539 34.387l221.44 231.07-59.133 53.32c-4.1719 3.7422-6.8789 8.8398-7.6406 14.391-0.76562 5.5508 0.46484 11.191 3.4688 15.922s7.5898 8.2383 12.938 9.9062l226.73 70.852c7.9883 2.4883 16.695 0.58203 22.91-5.0195 6.2148-5.5977 9.0156-14.059 7.3711-22.262l-46.664-232.9c-1.1016-5.4883-4.1133-10.41-8.4961-13.895-4.3867-3.4805-9.8633-5.2969-15.457-5.125-5.5977 0.16797-10.953 2.3164-15.117 6.0586l-48.469 43.711-144.59-150.94h487.95c17.398 0 33.477-9.2812 42.18-24.352 8.6992-15.07 8.6992-33.633 0-48.703-8.7031-15.07-24.781-24.352-42.18-24.352z"/>
  <path d="m656.37 172.27 54.211 48.797-241.41 252.77c-8.8359 9.2422-13.684 21.586-13.496 34.371 0.1875 12.781 5.3945 24.98 14.496 33.957 9.1016 8.9805 21.371 14.02 34.156 14.031h360.28c17.148-0.375 32.84-9.7422 41.309-24.66 8.4648-14.918 8.4648-33.191 0-48.109-8.4688-14.918-24.16-24.285-41.309-24.66h-246.38l164.79-172.5 53.391 48.07c4.1641 3.75 9.5234 5.9023 15.125 6.0781 5.6016 0.17188 11.082-1.6445 15.473-5.1289 4.3867-3.4883 7.3984-8.4141 8.4961-13.91l46.664-232.9c1.6484-8.207-1.1562-16.676-7.3789-22.277-6.2188-5.6016-14.938-7.5039-22.926-5.0039l-226.71 70.852c-5.3438 1.6719-9.9258 5.1836-12.926 9.9102-3.0039 4.7266-4.2383 10.363-3.4805 15.91 0.75781 5.5508 3.457 10.648 7.6172 14.398z"/>
 </g>
</svg>

<?xml version="1.0" encoding="UTF-8" standalone="no"?>
<!DOCTYPE svg PUBLIC "-//W3C//DTD SVG 1.1//EN" "http://www.w3.org/Graphics/SVG/1.1/DTD/svg11.dtd">
<svg width="100%" height="100%" viewBox="0 0 512 498" version="1.1" xmlns="http://www.w3.org/2000/svg" xmlns:xlink="http://www.w3.org/1999/xlink" xml:space="preserve" xmlns:serif="http://www.serif.com/" style="fill-rule:evenodd;clip-rule:evenodd;stroke-linejoin:round;stroke-miterlimit:2;">
    <g transform="matrix(1,0,0,1,-44.8582,-60.1138)">
        <g transform="matrix(0.461161,0,0,0.461161,24.1713,32.3917)">
            <path d="M81.562,1118.8C164.05,1058.64 231.142,979.84 277.372,888.81C323.602,797.783 347.657,697.11 347.575,595.02C347.657,492.93 323.602,392.27 277.372,301.24C231.142,210.217 164.042,131.42 81.562,71.26C76.933,67.908 71.23,66.389 65.546,66.991C59.862,67.596 54.605,70.28 50.784,74.53C46.968,78.784 44.854,84.295 44.858,90.01L44.858,1100.01C44.85,1105.73 46.956,1111.24 50.776,1115.5C54.593,1119.76 59.854,1122.44 65.538,1123.05C71.222,1123.66 76.933,1122.14 81.561,1118.78L81.562,1118.8Z" style="fill:white;fill-rule:nonzero;"/>
            <path d="M1106.4,660.94L504.31,660.94C491.513,660.94 479.228,665.979 470.115,674.963C461.002,683.947 455.795,696.162 455.615,708.959C455.435,721.752 460.299,734.107 469.154,743.346L690.594,974.416L631.461,1027.74C627.289,1031.48 624.582,1036.58 623.82,1042.13C623.055,1047.68 624.285,1053.32 627.289,1058.05C630.293,1062.78 634.879,1066.29 640.227,1067.95L866.957,1138.81C874.946,1141.3 883.652,1139.39 889.867,1133.79C896.082,1128.19 898.883,1119.73 897.238,1111.53L850.574,878.626C849.473,873.137 846.461,868.216 842.078,864.731C837.692,861.25 832.215,859.434 826.621,859.606C821.024,859.774 815.668,861.922 811.504,865.664L763.035,909.375L618.445,758.435L1106.39,758.435C1123.79,758.435 1139.87,749.154 1148.58,734.083C1157.27,719.013 1157.27,700.45 1148.58,685.38C1139.87,670.31 1123.79,661.028 1106.39,661.028L1106.4,660.94Z" style="fill:white;fill-rule:nonzero;"/>
            <path d="M656.37,172.27L710.581,221.067L469.171,473.837C460.335,483.079 455.487,495.423 455.675,508.208C455.863,520.989 461.07,533.188 470.171,542.165C479.273,551.146 491.542,556.185 504.327,556.196L864.607,556.196C881.755,555.821 897.447,546.454 905.916,531.536C914.381,516.618 914.381,498.345 905.916,483.427C897.447,468.509 881.756,459.142 864.607,458.767L618.227,458.767L783.017,286.267L836.408,334.337C840.572,338.087 845.931,340.239 851.533,340.415C857.135,340.587 862.615,338.771 867.006,335.286C871.393,331.798 874.404,326.872 875.502,321.376L922.166,88.476C923.814,80.269 921.01,71.8 914.787,66.199C908.568,60.598 899.849,58.695 891.861,61.195L665.151,132.047C659.807,133.719 655.225,137.231 652.225,141.957C649.221,146.684 647.987,152.32 648.745,157.867C649.503,163.418 652.202,168.515 656.362,172.265L656.37,172.27Z" style="fill:white;fill-rule:nonzero;"/>
        </g>
    </g>
</svg>
